icons/springboot.svg

<svg xmlns="http://www.w3.org/2000/svg" xmlns:xlink="http://www.w3.org/1999/xlink" viewBox="0,0,256,256" width="48px" height="48px" fill-rule="nonzero"><g fill="none" fill-rule="nonzero" stroke="none" stroke-width="1" stroke-linecap="butt" stroke-linejoin="miter" stroke-miterlimit="10" stroke-dasharray="" stroke-dashoffset="0" font-family="none" font-weight="none" font-size="none" text-anchor="none" style="mix-blend-mode: normal"><g transform="scale(5.33333,5.33333)"><path d="M43.982,23.635c0.069,-4.261 -0.891,-9.328 -2.891,-15.273l-1.568,-4.662l-2.13,4.433c-0.114,0.237 -0.244,0.469 -0.38,0.698c-3.499,-3.004 -8.039,-4.831 -13.013,-4.831c-11.046,0 -20,8.954 -20,20c0,11.046 8.954,20 20,20c11.046,0 20,-8.954 20,-20c0,-0.123 -0.016,-0.242 -0.018,-0.365z" fill="#daa520"></path><path d="M39.385,32.558c-3.123,4.302 -8.651,4.533 -13.854,4.442h-6.781h-1.938c4.428,-1.593 7.063,-1.972 9.754,-3.4c5.068,-2.665 10.078,-8.496 11.121,-14.562c-1.93,5.836 -7.779,10.85 -13.109,12.889c-3.652,1.393 -10.248,2.745 -10.248,2.745l-0.267,-0.145c-4.49,-2.259 -4.626,-12.313 3.537,-15.559c3.574,-1.423 6.993,-0.641 10.854,-1.593c4.122,-1.012 8.89,-4.208 10.83,-8.375c2.172,6.667 4.786,17.106 0.101,23.558zM15.668,38.445c-0.282,0.35 -0.713,0.555 -1.163,0.555c-0.823,0 -1.495,-0.677 -1.495,-1.5c0,-0.823 0.677,-1.5 1.495,-1.5c0.341,0 0.677,0.118 0.941,0.336c0.64,0.519 0.74,1.469 0.222,2.109z" fill="#ffffff"></path></g></g></svg>

<svg xmlns="http://www.w3.org/2000/svg"  viewBox="0 0 48 48" width="48px" height="48px"><path fill="#8bc34a" d="M43.982,23.635c0.069-4.261-0.891-9.328-2.891-15.273l-1.568-4.662l-2.13,4.433 c-0.114,0.237-0.244,0.469-0.38,0.698C33.514,5.827,28.974,4,24,4C12.954,4,4,12.954,4,24c0,11.046,8.954,20,20,20s20-8.954,20-20 C44,23.877,43.984,23.758,43.982,23.635z"/><path fill="#fff" d="M39.385 32.558c-3.123 4.302-8.651 4.533-13.854 4.442H18.75h-1.938c4.428-1.593 7.063-1.972 9.754-3.4 5.068-2.665 10.078-8.496 11.121-14.562-1.93 5.836-7.779 10.85-13.109 12.889-3.652 1.393-10.248 2.745-10.248 2.745l-.267-.145C9.573 32.268 9.437 22.214 17.6 18.968c3.574-1.423 6.993-.641 10.854-1.593 4.122-1.012 8.89-4.208 10.83-8.375C41.456 15.667 44.07 26.106 39.385 32.558L39.385 32.558zM15.668 38.445C15.386 38.795 14.955 39 14.505 39c-.823 0-1.495-.677-1.495-1.5s.677-1.5 1.495-1.5c.341 0 .677.118.941.336C16.086 36.855 16.186 37.805 15.668 38.445L15.668 38.445z"/></svg>
